!!!OTL: 1741. Heinrich und Liese. / Allbekannte Melodie.
!!!ARE: Europa, Mitteleuropa, Deutschland
!!!SCT: E1741
!!!YEM: Copyright 1995, estate of Helmut Schaffrath.
**kern	**text
*ICvox	*
*M3/4	*
*k[f#c#]	*
*D:	*
!LO:TX:a:t=Etwas langsam.	!
{8a	Wenn
8a	der
=1	=1
8bL	Topp
8aJ	.
8g	a-
8f#	-ber
8g	nun
8e	a
=2	=2
4d	Loch
4f#}	hat,
{8f#	lie-
8f#	-ber
=3	=3
4a^	Hein-
4g	-rich,
8g	lie-
8e	-ber
=4	=4
4b^	Hein-
4a}	-rich?
=||	=||
{8a	"Nimm
8a	.
=5	=5
8bL	Struh,
8aJ	.
8gL	du
8f#J	.
8g	dum-
8e	-me
=6	=6
4d	Lie-
4f#}	-ſe,
{8f#L	nimm
8dJ	.
=7	=7
2a	Struh,
8a	ſtopp
8a	es
=8	=8
2d}	ʒu!"
==	==
!!!AGN: Scherz -, Spiel - Lied
!!!ONB: ESAC (Essen Associative Code) Database: ERK3
!!!AMT: simple triple
!!!AIN: vox
!!!EED: Helmut Schaffrath
!!!EEV: 1.0
!!!GTL: Scherz-, Spiel- und Spottlieder.
!!!URL-scan: https://rosdok.uni-rostock.de/mcrviewer/recordIdentifier/rosdok_ppn745177999/iview2/phys_0531.iview2?x=-449.8344612962892&y=277.5128594492562&scale=0.47549036216460333&rotation=0&layout=singlePageLayout
!!!ENC: Anna Maria Matuszewska
!!!EEV: 2025/08/01
*-	*-
